svgs/sharp-light/music-note.svg

<svg xmlns="http://www.w3.org/2000/svg" viewBox="0 0 384 512"><!--! Font Awesome Pro 6.6.0 by @fontawesome - https://fontawesome.com License - https://fontawesome.com/license (Commercial License) Copyright 2024 Fonticons, Inc. --><path d="M224 128l0 39 128-32 0-94L224 73l0 55zm-32 0l0-80L352 8l32-8 0 33 0 127L224 200l0 232c0 44.2-50.1 80-112 80S0 476.2 0 432s50.1-80 112-80c31.3 0 59.7 9.2 80 24l0-168 0-33 0-47zM172.6 401.5C158.3 391.3 137 384 112 384s-46.3 7.3-60.6 17.5C37.1 411.7 32 422.9 32 432s5.1 20.3 19.4 30.5C65.7 472.7 87 480 112 480s46.3-7.3 60.6-17.5C186.9 452.3 192 441.1 192 432s-5.1-20.3-19.4-30.5z"/></svg>

<svg xmlns="http://www.w3.org/2000/svg" viewBox="0 0 384 512"><!--! Font Awesome Pro 6.4.0 by @fontawesome - https://fontawesome.com License - https://fontawesome.com/license (Commercial License) Copyright 2023 Fonticons, Inc. --><path d="M224 128v39l128-32V41L224 73v55zm-32 0V48L352 8l32-8V33 160L224 200V432c0 44.2-50.1 80-112 80S0 476.2 0 432s50.1-80 112-80c31.3 0 59.7 9.2 80 24V208 175 128zM172.6 401.5C158.3 391.3 137 384 112 384s-46.3 7.3-60.6 17.5C37.1 411.7 32 422.9 32 432s5.1 20.3 19.4 30.5C65.7 472.7 87 480 112 480s46.3-7.3 60.6-17.5C186.9 452.3 192 441.1 192 432s-5.1-20.3-19.4-30.5z"/></svg>
